X: 15889
T: Gráinne's
R: jig
M: 6/8
K: Gmajor
|:B|dGF GDB,|G,A,G, DB,D|EcB ABA|FED cBA|
B2/^c2/d2/B G3|EF/G/E CEG|DGc BDF|AGF G2:|
|:A|~B3 ~G3|eBc ADE|~F3 ~f3|edc d2c|
Bc/d/B Ggf|ecA E3|DBc BDF|AGF G2:|
|:D|GBd ~g3|edB cBA|Bc/d/B a2g|fdc d2f|
gdB Ggf|ecA ~E3|DGc BDF|AGF G2:|

